src/icons/support-dashboard.svg

<svg enable-background="new 0 0 60 60" viewBox="0 0 60 60" xmlns="http://www.w3.org/2000/svg"><circle cx="30" cy="30" fill="#d4ecfc" r="30"/><path d="m8.8 7c-1 0-1.8.8-1.8 1.8s.8 1.8 1.8 1.8 1.8-.8 1.8-1.8-.9-1.8-1.8-1.8zm-1.8 5.2c-1 0-1.8.8-1.8 1.8s.8 1.8 1.8 1.8 1.8-.8 1.8-1.8-.8-1.8-1.8-1.8zm7-3.4c1 0 1.8-.8 1.8-1.8s-.8-1.8-1.8-1.8-1.8.8-1.8 1.8.8 1.8 1.8 1.8zm-3.5 10.4c0 1.9 1.6 3.5 3.5 3.5s3.5-1.6 3.5-3.5c0-.9-3.5-8.8-3.5-8.8s-3.5 7.9-3.5 8.8zm3.5-19.2c-7.7 0-14 6.3-14 14s6.3 14 14 14 14-6.3 14-14-6.3-14-14-14zm0 24.5c-5.8 0-10.5-4.7-10.5-10.5s4.7-10.5 10.5-10.5 10.5 4.7 10.5 10.5-4.7 10.5-10.5 10.5zm7-15.7c0-1-.8-1.8-1.8-1.8s-1.8.8-1.8 1.8.8 1.8 1.8 1.8 1.8-.9 1.8-1.8zm0 3.4c-1 0-1.8.8-1.8 1.8s.8 1.8 1.8 1.8 1.8-.8 1.8-1.8-.8-1.8-1.8-1.8z" fill="#25a6f7" transform="translate(16 16)"/></svg>

<?xml version="1.0" encoding="utf-8"?>
<!-- Generator: Adobe Illustrator 20.1.0, SVG Export Plug-In . SVG Version: 6.00 Build 0)  -->
<svg version="1.1" id="Layer_1" xmlns="http://www.w3.org/2000/svg" xmlns:xlink="http://www.w3.org/1999/xlink" x="0px" y="0px"
	 viewBox="0 0 60 60" style="enable-background:new 0 0 60 60;" xml:space="preserve">
<style type="text/css">
	.st0{fill:#D4ECFC;}
	.st1{fill:#25A6F7;}
</style>
<title>HDL/Icon/Standard/Support/dashboard</title>
<desc>Created with Sketch.</desc>
<g id="Colors">
	<g id="Support-Icons" transform="translate(-100.000000, -1336.000000)">
		<g id="HDL_x2F_Icon_x2F_Standard_x2F_Support_x2F_dashboard" transform="translate(100.000000, 1336.000000)">
			<g id="ICON">
				<circle id="Oval" class="st0" cx="30" cy="30" r="30"/>
				<g id="dashboard" transform="translate(16.000000, 16.000000)">
					<path id="Shape" class="st1" d="M8.8,7C7.8,7,7,7.8,7,8.8s0.8,1.8,1.8,1.8s1.8-0.8,1.8-1.8S9.7,7,8.8,7z M7,12.2
						c-1,0-1.8,0.8-1.8,1.8S6,15.8,7,15.8S8.8,15,8.8,14S8,12.2,7,12.2z M14,8.8c1,0,1.8-0.8,1.8-1.8S15,5.2,14,5.2S12.2,6,12.2,7
						S13,8.8,14,8.8z M10.5,19.2c0,1.9,1.6,3.5,3.5,3.5s3.5-1.6,3.5-3.5c0-0.9-3.5-8.8-3.5-8.8S10.5,18.3,10.5,19.2z M14,0
						C6.3,0,0,6.3,0,14s6.3,14,14,14s14-6.3,14-14S21.7,0,14,0z M14,24.5C8.2,24.5,3.5,19.8,3.5,14S8.2,3.5,14,3.5S24.5,8.2,24.5,14
						S19.8,24.5,14,24.5z M21,8.8c0-1-0.8-1.8-1.8-1.8s-1.8,0.8-1.8,1.8s0.8,1.8,1.8,1.8S21,9.7,21,8.8z M21,12.2
						c-1,0-1.8,0.8-1.8,1.8s0.8,1.8,1.8,1.8s1.8-0.8,1.8-1.8S22,12.2,21,12.2z"/>
				</g>
			</g>
		</g>
	</g>
</g>
</svg>
